X:1
T:Gathering Home
T:Gathering Home
T:Rigdon McCoy McIntosh
T:Mary B. C. Slade, 1876
T:Public Domain Courtesy of the Cyber Hymnal™
T:Public Domain Courtesy of the Cyber Hymnal™
C:Rigdon McCoy McIntosh
Z:Public Domain
Z:Courtesy of the Cyber Hymnal™
%%score ( 1 2 ) 3
L:1/8
Q:1/4=100
M:6/8
K:Eb
V:1 treble 
V:2 treble 
V:3 bass 
V:1
 [EG][EG][EG] [EG][DF][EG] | [GB][Ac][GB] [EG]3 | [DF][FA][FA] ([FA]>[GB][Ac]) | %3
w: 1.~Up to the boun- ti- ful|Giv- er of life,|Ga- ther- ing home! * *|
w: 2.~Up to the ci- ty where|fall- eth no night,|Ga- ther- ing home! * *|
w: 3.~Up to the beau- ti- ful|man- sions a- bove,|Ga- ther- ing home! * *|
 [Ac][GB][GB] [EG]3 | [EG][EG][EG] [EG][DF][EG] | [GB][Ac][GB] [EG]2 [EG] | %6
w: ga- ther- ing home!|Up to the dwell- ing where|com- eth no strife, The|
w: ga- ther- ing home!|Up where the Sav- ior’s own|face is the light, The|
w: ga- ther- ing home!|Safe in the arms of His|in- fi- nite love, The|
 [DF][DF][DF] [DF][DG][DF] | !fermata!E3 ||"^Refrain" EGB | (e3- e3) | [Ge]3 cde | (B3- B3-) | %12
w: dear ones are ga- ther- ing|home.|Ga- ther- ing|home! *|* Ga- ther- ing|home! *|
w: dear ones are ga- ther- ing|home.|||||
w: dear ones are ga- ther- ing|home.|||||
 [GB]3 [GB][Ac][GB] | [GB][EG]E [DF][DF][EG] | [DF]3 EGB | (e3- e3-) | [Ge]3 fec | (B3- B3-) | %18
w: * Nev- er to|sor- row more, nev- er to|roam. Ga- ther- ing|home! *|* Ga- ther- ing|home! *|
w: ||||||
w: ||||||
 [GB]3 [Ac]3 | [GB][EG]E [EG][DG][DF] | E6 |] %21
w: * God’s|child- ren are ga- ther- ing|home!|
w: |||
w: |||
V:2
 x6 | x6 | x6 | x6 | x6 | x6 | x6 | E3 || x3 | x3 GGG | x6 | x3 GGG | x6 | x2 E x3 | x6 | x3 GGG | %16
 x6 | x3 GGG | x6 | x2 E x3 | E6 |] %21
V:3
 [E,,E,]3 [E,,E,]3 | [E,,E,]3 [E,,E,]3 | [B,,,B,,]3 [B,,,B,,]3 | [E,,E,]3 [E,,E,]3 | %4
w: ~ ~|~ ~|~ ~|~ ~|
 [E,,E,]3 [E,,E,]3 | [E,,E,]3 [E,,E,]3 | [B,,,B,,]3 [B,,,B,,]3 | !fermata![C,,E,]3 || z3 | %9
w: ~ ~|~ ~|~ ~|~||
 z3 [E,B,][E,B,][E,B,] | [E,B,]3 z3 | z3 [E,E][E,E][E,E] | [E,E]3 [E,E][E,E][E,E] | %13
w: Ga- ther- ing|home!|Ga- ther- ing|home! Nev- er to|
 [E,E][E,B,][E,G,] [B,,B,][B,,B,][B,,B,] | [B,,B,]3 z3 | z3 [E,B,][E,B,][E,B,] | [E,B,]3 z3 | %17
w: sor- row more, nev- er to|roam.|Ga- ther- ing|home!|
 z3 [E,E][E,E][E,E] | [E,E]3 [A,,E]3 | [B,,E][B,,B,][B,,G,] [B,,B,][B,,B,][B,,A,] | [E,G,]6 |] %21
w: Ga- ther- ing|home! God’s|child- ren are ga- ther- ing|home!|

